X:142
M:3/4
L:1/8
Q:1/4=120
K:D
=c>d B3A|B3/2A/4B/4 d4|F3/2E/4F/4 B4|AF D2 z2:|
|:F3/2E/4F/4 A2 z2|(3FED B2 z2|(3AFA B2 z2|A>F D2 z2|

